X: 9011
T: Da Auld Swaara Jupie
R: barndance
M: 4/4
K: Gmajor
|:D|[M:6/4] G4 G3 D B,2 G,2|[M:4/4] D2 GD (3B,2A,2B,2|G,3 B Bc/B/ AF|
[M:6/4] G4 G3 D B,2 G,2|[M:4/4] (3D2G2D2 (3B,2A,2B,2|D2 G2 G3:|
|:A|GFED C2 EC|B,2 DB, A,3 B,|G,3 B B2 AF|
GFED C2 EC|(3B,2D2B,2 A,3 B,|D2 G2 G3:|
|:D|GFED G2 g2|e2 dB defg|a3 A Bc/B/ AF|
GFED G2 g2|e2 dB (3d2g2d2|1 B2 G2 G3:|2 B G3 G3||

